X:1563
T:Blacksmith's Fancy
R:reel
S:Seamus & Kevin Glackin
H:
N:
D:Northern Lights
Z:Adrian Scahill
M:2/2
L:1/8
K:D
dcB|A2GE FDDF|G2E=C G,CEG|AFGE FDEC|DEFG AdcB|\
A2GE FDDF|G2E=C G,CEG|DEFG Acde|faeg fdd2:||\
fddc dfaf|ecAG FDDe|fddc dfaf|efga fdde|\
fddc dfaf|ecAG FAEF|DEFG Acde|faeg fdd2:||
